!!!!SEGMENT: pl-wtm--iii-41-637-3--001-002_joteyko-tadeusz--sonatine-f-dur-op-18-no-3-ii-noel.krn
!!!cenid: 19xx:110
!!!COM: Joteyko, Tadeusz
!!!COM-rismID: pe50046072
!!!CDT: 1872-1932
!!!CNT: Polish
!!!OPR: Sonatine F-dur Op. 18 No. 3
!!!OTL: II. Noël
!!!OMV: 002
!!!PDT:
!!!AGN: Secular; Sonata
!!!YEC: Copyright 2022 Narodowy Instytut Fryderyka Chopina (https://polishscores.org)
!!!YEM: License CC-BY-4.0 (https://creativecommons.org/licenses/by/4.0)
!!!SMS-siglum: PL-Wtm
!!!SMS-shelfmark: III.41.637-3
!!!SMS-variant:
!!!SMS-altvar:
!!!SMS-shelfwork: 001-002 M
!!!NIFC-rismSourceID: 1001141265
!!!NIFC-rismChildID: 1001141265
!!!NIFC-islandoraID: pl-wtm:20267
!!!URL-pdf-islandora: https://repozytorium.nifc.pl/islandora/object/pl-wtm%3A20267/datastream/PDF/view
!!!URL-scan: https://polish.musicsources.pl/pl/lokalizacje/galeria/druki-muzyczne/17523/4 @EN{Scan on Polish Music Sources Website} @PL{Skany w portalu Dziedzictwo Muzyki Polskiej w otwartym dostępie}
!!!IIIF:
!!!ONB-nifc: UWAGA: części Sonatiny: I. Le printemps, II. Noel, III. La fete au village
!!!AIN: 1 piano
!!!key: B-
**kern	**fing	**kern	**fing	**dynam
*part1	*	*part1	*	*part1
*staff2	*	*staff1	*	*staff1/2
*group1	*	*group1	*	*
*ICklav	*	*ICklav	*	*
*Ipiano	*	*Ipiano	*	*
*I"PIANO.	*	*I"PIANO.	*	*
*I'	*	*I'	*	*
*clefF4	*	*clefG2	*	*
*k[b-e-]	*	*k[b-e-]	*	*
*B-:	*	*B-:	*	*
*M2/4	*	*M2/4	*	*
=1	=1	=1	=1	=1
!!LO:TX:a:t=Andantino con moto.
!LO:TX:b:i:t=legato	!	!LO:TX:b:i:t=dolce	!	!LO:DY:rj
8B-\L	.	8ddL 8b- 8f\	4	pp
8B-\	.	8dd 8b- 8f\	.	.
8E-\	.	8ee- 8b- 8g\	5	.
8B-\J	.	8ddJ 8b- 8f\	.	.
=2	=2	=2	=2	=2
*	*below	*	*	*
8e-L 8B-\	1 3	8ccL 8g/	2 5	.
8e-J 8c\	.	8aJ 8f/	1 3	.
4d\	.	4b- 4f/	4	.
=3	=3	=3	=3	=3
*	*	*^	*	*
8B-\L	3	8ddL 8b- 8f\	4ryy	4	<
8A-X\J	.	8ddJ 8b- 8f\	.	.	.
8G\L	5	8ff/L	4bn 4g\	5	.
16c\L	3	16ee-/L	.	.	[
16d\JJ	.	16dd/JJ	.	.	.
*	*	*v	*v	*	*
=4	=4	=4	=4	=4
8e-\L	.	8ccL 8g/	.	>
8e-J 8A\	1 4	8ccJ 8g/	.	.
8d\L	1	4dd 4f#X/	.	.
8D\J	5	.	.	]]
=5	=5	=5	=5	=5
8G\L	3	4b- 4g\	2 4	.
8d\	.	.	.	.
8E-\	4	4cc 4g\	5	.
8c\J	.	.	.	.
=6	=6	=6	=6	=6
8F\L	5	8a/L	3	.
8e-\	1	8g/J	.	.
8d\	2	4f/	.	.
8c\J	1	.	.	.
=7	=7	=7	=7	=7
8B-\L	2	8ddL 8b- 8f\	4	<
8G\	.	8dd 8b- 8g\	.	.
8E-\	.	8ee- 8b- 8g\	.	.
8B-\J	.	8ddJ 8b- 8f\	.	[
=8	=8	=8	=8	=8
8F\L	.	8ccL 8a 8f/	5	>
8e-J 8c\	.	8aJ 8f/	3	.
4d 4B-\	.	4b- 4f/	4	]]
!!LO:LB:g=original
=9	=9	=9	=9	=9
*	*	*^	*	*
8F\L	4	8g^/L	4e-\	1 3	.
8A\J	.	8f/J	.	.	.
8F\L	.	8g^/L	8e-\L	.	.
8A\J	.	8f/J	8f\J	.	.
*	*	*v	*v	*	*
=10	=10	=10	=10	=10
8B-\L	1	8b-L 8d/	5	.
8F\J	2	8ccJ 8a 8f/	4	.
4BB-/	5	4dd 4b- 4f\	5	.
=11	=11	=11	=11	=11
*	*	*^	*	*
8B-\L	3	8ddL 8b- 8f/	4ryy	.	<
8Bn\J	2	8ddJ 8a-X 8f/	.	.	.
8c\L	1	16ff/LL	4g\	.	.
.	.	16ee-/	.	.	.
8E-\J	3	16dd/	.	.	[
.	.	16cc/JJ	.	.	.
*	*	*v	*v	*	*
=12	=12	=12	=12	=12
8F/L	1	8ddL 8b- 8f/	.	>
8FF/J	5	8ccJ 8a 8e-/	.	.
4BB-/	2	4b- 4d/	.	]]
=13	=13	=13	=13	=13
8C/	5	8b-L 8g/	2 4	pp
4c^\	1	16gL 16en/	1 2	.
.	.	16aJJ 16f/	1 3	.
.	.	8b-L 8g\	2 4	.
8En\	4	8ddJ 8b-\	3 5	.
=14	=14	=14	=14	=14
8F\	3	8ccL 8a/	2 4	.
4c^\	.	16aL 16f/	1 2	.
.	.	16b-JJ 16g/	1 3	.
.	.	8ccL 8a/	2 4	.
8c\	.	8aJ 8f/	.	.
=15	=15	=15	=15	=15
8C\L	5	8b-L 8g/	2 4	.
8d\	1	16gL 16en/	.	.
.	.	16aJJ 16f/	.	.
8c\	2	8b-L 8g\	.	.
8En\J	5	8ddJ 8b-\	3 5	.
!!LO:LB:g=original
=16	=16	=16	=16	=16
8F\L	4	16ccLL 16a/	2 4	.
.	.	16b- 16g/	1 3	.
[8c\J	1	16a 16f/	1 2	.
.	.	16b-JJ 16g/	1 3	.
16c\LL]	.	4cc 4a\	2 4	.
(16B-\	2	.	.	.
16A\	1	.	.	.
16G\JJ	2	.	.	.
=17	=17	=17	=17	=17
8F#X\L	3	8ccL 8d/	1 5	<
8D\J)	5	16aL 16f#X/	1 2	.
.	.	16b-JJ 16g/	1 3	.
16F#\LL	5	8ccL 8a\	2 4	.
16e-X\	2	.	.	.
16d\	1	8ee-XJ 8cc\	4 5	[[
16c\JJ	2	.	.	.
=18	=18	=18	=18	=18
*	*	*^	*	*
!	!	!LO:TX:b:i:t=legato	!	!	!
16B-\LL	3	8dd/L	4g\	1 5	.
16A\	.	.	.	.	.
16G\	.	16b-/L	.	3	.
16A\JJ	.	16cc/JJ	.	.	.
16B-\LL	3	8ddL 8g/	4ryy	.	.
16f\	1	.	.	.	.
16en\	2	8b-J 8g/	.	.	.
16d\JJ	3	.	.	.	.
=19	=19	=19	=19	=19	=19
16c/LL	1	8ddL 8b-\	4ryy	3 5	.
16C/	5	.	.	.	.
16D/	.	16ccL 16a\	.	2 4	.
16En/JJ	.	16b-JJ 16g\	.	1 3	.
8F/L	2	8a/L	16f\LL	3 5	.
.	.	.	16c\	.	.
8C/J	.	8g/J	16f\	3 4	.
.	.	.	16en\JJ	2	.
*	*	*v	*v	*	*
=20	=20	=20	=20	=20
*^	*	*	*	*
16F/LL	[4F\	.	[>4f/	3	.
16d/	.	.	.	.	>
16c/	.	.	.	.	.
16B-/JJ	.	.	.	.	.
8A/	8F\]	.	8f/]	.	.
8r	8ryy	.	8r	.	]]
*v	*v	*	*	*	*
*clefG2	*	*	*	*
=21	=21	=21	=21	=21
16r	.	8bb-L 8gg\	2 4	pp
16dd\LL	1	.	.	.
16cc\	.	16ggL 16een\	1 2	.
16b-\JJ	.	16aaJJ 16ff\	1 3	.
16a/LL	1	8bb-L 8gg\	2 4	.
16g/	.	.	.	.
16f/	.	8dddJ 8bb-\	3 5	.
16en/JJ	4	.	.	.
!!LO:LB:g=original
=22	=22	=22	=22	=22
16f/LL	3	8cccL 8aa\	2 4	.
16g/	.	.	.	.
16a/	.	16aaL 16ff\	1 2	.
16g/JJ	.	16bb-JJ 16gg\	.	.
16f/LL	.	8cccL 8aa\	.	.
16en/	4	.	.	.
16d/	1	8aaJ 8ff\	.	.
16d-X/JJ	2	.	.	.
*clefF4	*	*	*	*
=23	=23	=23	=23	=23
16c\LL	3	8bb-L 8gg\	2 4	.
16d\	1	.	.	.
16c\	2	16ggL 16een\	2	.
16B-\JJ	3	16aaJJ 16ff\	3	.
16A\LL	1	8bb-L 8gg\	2 4	.
16G\	.	.	.	.
16F\	.	8dddJ 8bb-\	3 5	.
16En\JJ	4	.	.	.
=24	=24	=24	=24	=24
16F\LL	3	16cccLL 16aa\	2 4	.
16G\	.	16bb- 16gg\	.	.
16A\	.	16aa 16ff\	.	.
16G\JJ	.	16bb-JJ 16gg\	.	.
16F\LL	.	4ccc 4aa\	.	.
16En\	.	.	.	.
16F\	.	.	.	.
16E-X\JJ	4	.	.	.
=25	=25	=25	=25	=25
16D\LL	5	8cccL 8aa\	2 4	<
16d\	1	.	.	.
16c\	.	16aaL 16ff#X\	1 2	.
16B-\JJ	3	16bb-JJ 16gg\	1 3	.
16A\LL	1	8cccL 8aa\	2 4	.
16G\	.	.	.	.
16F#X\	3	8eee-XJ 8ccc\	3 5	[
16A\JJ	2	.	.	.
=26	=26	=26	=26	=26
16d\LL	1	8dddL 8bb-\	2 4	.
16e-X\	2	.	.	.
16d\	1	16bb-L 16gg\	1 2	.
16c\JJ	2	16cccJJ 16aa\	.	.
16B-\LL	3	8dddL 8bb-\	.	.
16A\	1	.	.	.
16G\	2	8bb-\J	.	.
16Fn\JJ	3	.	.	.
=27	=27	=27	=27	=27
16En\LL	4	8dddL 8bb-\	3 5	.
16F\	.	.	.	>
16G\	.	16cccL 16aa\	.	.
16A\JJ	.	16bb-JJ 16gg\	.	.
16B-\LL	.	8aaL 8ff\	.	.
16Bn\	.	.	.	.
16c\	.	8ggJ 8b-\	.	]
16C\JJ	.	.	.	.
!!LO:LB:g=original
=28	=28	=28	=28	=28
!	!	!LO:TX:b:i:t=rit.	!	!
8F\L	.	[4ff [4a\	.	.
(16e-X\L	.	.	.	>
16d\JJ	.	.	.	.
8c\L	.	8ff] 8a\]	.	.
8F\J)	.	8r	.	]]
=29	=29	=29	=29	=29
8B-\L	.	8ddL 8b- 8f\	4	pp
!	!	!LO:TX:b:i:t=a tempo	!	!
8B-\	.	8dd 8b- 8f\	.	.
8E-\	.	8ee- 8b- 8g-X\	5	.
8B-\J	.	8ddJ 8b- 8f\	.	.
=30	=30	=30	=30	=30
*	*	*^	*	*
8e-L 8B-\	.	16cc/LL	8.g-\L	1 4	.
.	.	16dd/	.	.	.
8e-J 8c\	.	16cc/	.	.	.
.	.	16a/JJ	16f\J	.	.
4d\	.	4b- 4f/	4ryy	.	.
=31	=31	=31	=31	=31	=31
8B-\L	3	8ddL 8b- 8f\	4ryy	4	.
8A-X\J	.	8ddJ 8b- 8f\	.	.	<
8G\L	.	8ff/L	4bn 4g\	.	.
16c\L	.	16ee-/L	.	.	.
16d\JJ	.	16dd/JJ	.	.	[
=32	=32	=32	=32	=32	=32
8e-\L	.	16cc/LL	8g\L	1 3	.
.	.	16b-/	.	.	.
8e-J 8A\	.	16cc/	8g\J	.	>
.	.	16cc#X/JJ	.	4	.
8d\L	.	4dd 4f#X/	4ryy	5	.
8D\J	.	.	.	.	]
*	*	*v	*v	*	*
=33	=33	=33	=33	=33
8G\L	1	4b- 4g\	.	.
8F\	.	.	.	.
8E-\	3	4cc 4g\	.	.
8D\J	1	.	.	.
=34	=34	=34	=34	=34
8C/L	2	8aL 8e-/	.	.
8BB-/	.	8gJ 8d/	.	.
8AA/	4	4f 4e-/	.	.
8F/J	.	.	.	.
=35	=35	=35	=35	=35
8BB-\L	5	8ddL 8b- 8f\	4	<
8B-\	.	8dd 8b- 8f\	.	.
8E-\	.	8ee- 8b- 8g\	.	.
8B-\J	.	8ddJ 8b- 8f\	.	[[
!!LO:LB:g=original
=36	=36	=36	=36	=36
8F\L	3	8ccL 8a 8e-/	.	>
8F#X\J	.	8aJ 8e-/	.	.
4G\	.	4b- 4d/	.	]]
=37	=37	=37	=37	=37
8E-\L	4	4g/	.	pp
8G\	.	.	.	.
8F\	.	4a-X/	.	.
8Bn\J	.	.	.	.
=38	=38	=38	=38	=38
8G\L	4	8g/L	.	.
8Bn\	.	8f/J	.	.
8c\	.	4e-/	.	.
8G\J	.	.	.	.
=39	=39	=39	=39	=39
8c\L	.	8e-/L	.	.
8F\J	.	8e-/J	.	.
4A\	.	8g/L	.	.
.	.	16f/L	.	.
.	.	16e-/JJ	.	.
=40	=40	=40	=40	=40
8B-\L	.	8d/L	.	.
8F\J	.	8c/J	.	.
4B-\	.	4d/	.	.
=41	=41	=41	=41	=41
*^	*	*	*	*
4r	[2B-\	.	4dd 4b- 4f\	.	.
!	!	!	!	!	!LO:DY:rj
4e-/	.	.	4cc 4a 4g-X/	.	pp
=42	=42	=42	=42	=42	=42
[4d/	4B-\_	.	[4dd [4b- [4f\	.	.
8d/]	8B-\]	.	8dd] 8b-] 8f\]	.	.
8r	8ryy	.	8r	.	.
*v	*v	*	*	*	*
*clefG2	*	*	*	*
=43	=43	=43	=43	=43
!!LO:TX:a:t=Lento.
4b-\	.	4ddd 4bb- 4ff\	.	ppp
4f/	.	4ccc 4aa-X 4ff\	.	.
=44	=44	=44	=44	=44
[4b-\	.	[4ddd 4bb- [4ff\	.	.
8b-\]	.	8ddd] 8bb- 8ff\]	.	.
8r	.	8r	.	.
=45	=45	=45	=45	=45
[2ff [2b-\	.	[2bbb- [>2ddd\	.	ppp
=46	=46	=46	=46	=46
4ff] 4b-;\]	.	4bbb-] 4ddd;\]	.	.
4r	.	4r	.	.
==	==	==	==	==
*-	*-	*-	*-	*-
!!!system-decoration: {(g1)}
!!!RDF**kern: i = editorial accidental
!!!RDF**kern: > = above
!!!RDF**kern: < = below
!!!RDF**kern: N = linked
!!!RDF**dynam: > = "dim.", fontstyle= "italic"
!!!ENC: Berenika Jozajtis
!!!EED: Katarzyna Serwa
!!!END: 2023-10-09
!!!EEV: 2023-10-20
